X:1
T:Domine quando veneris
T:Palestrina
T:Domine quando veneris
T:Copyright © 2015 by CPDL.  This edition can be fully distributed, duplicated, performed, and recorded. 
T:Copyright © 2015 by CPDL.  This edition can be fully distributed, duplicated, performed, and recorded. 
T:Copyright © 2015 by CPDL.  This edition can be fully distributed, duplicated, performed, and recorded. 
T:Copyright © 2015 by CPDL.  This edition can be fully distributed, duplicated, performed, and recorded. 
T:Copyright © 2015 by CPDL.  This edition can be fully distributed, duplicated, performed, and recorded. 
T:Copyright © 2015 by CPDL.  This edition can be fully distributed, duplicated, performed, and recorded. 
T:Copyright © 2015 by CPDL.  This edition can be fully distributed, duplicated, performed, and recorded. 
T:Copyright © 2015 by CPDL.  This edition can be fully distributed, duplicated, performed, and recorded. 
T:Copyright © 2015 by CPDL.  This edition can be fully distributed, duplicated, performed, and recorded. 
T:Copyright © 2015 by CPDL.  This edition can be fully distributed, duplicated, performed, and recorded. 
T:Copyright © 2015 by CPDL.  This edition can be fully distributed, duplicated, performed, and recorded. 
T:Copyright © 2015 by CPDL.  This edition can be fully distributed, duplicated, performed, and recorded. 
T:Copyright © 2015 by CPDL.  This edition can be fully distributed, duplicated, performed, and recorded. 
C:Palestrina
Z:Copyright © 2015 by CPDL.  This edition can be fully distributed, duplicated, performed, and recorded.
Z:
%%score [ 1 2 3 4 ]
L:1/8
Q:1/2=92
M:4/2
K:C
V:1 treble nm="SOPRANO" snm="S."
V:2 treble nm="ALTO" snm="A."
V:3 treble-8 transpose=-12 nm="TENOR" snm="T."
V:4 bass nm="BASS" snm="B."
V:1
"^Part I:  O Lord, when you come to judge the world, where shall I hide from the face of your wrath? For I have sinned much in my life.Part II:  I dread my sins, I blush before thee: When you come to judge, do not condemn me, For I have sinned much in my life.""^PRIMA PARS" z16 | %1
w: |
 z16 | z16 | E12 E4 | E8 A8- | A4 G4 c6 B2 | A2 G2 G2 FE F4 F4 | E4 A8 ^G2 ^F2 | ^G4 A8 G4 | %9
w: ||Do- mi-|ne, quan-|* do ve- *|* * * * * * ne-|ris, ve- * *|* * ne-|
 A8 z4 E4- | E4 E4 E8 | A12 G4 | c6 B2 A2 G2 F2 E2 | D4 E4 F8- | F4 F4 E8 | z8 z4 A4- | %16
w: ris, Do-|* mi- ne,|quan- do|ve- * * * * *||* ne- ris|ju-|
 A4 G4 F4 E4 | D8 A4 c4- | c4 B4 A4 G4 | F8 E6 F2 | G6 E2 F2 E2 E4- | E4 D4 E8- | E8 z8 | %23
w: * di- ca- re|ter- ram, ju-|* di- ca- re|ter- * *||* * ram,|_|
 z4 A8 ^G4 | A4 c4 B8 | A12 A4 | B4 c4 (d2 c2 B2 A2 | G4) A4 B4 c4- | (c4 B2 A2 G4) A4 | %29
w: u- bi|me a- scon-|dam a|vul- tu i- * * *|* rae tu- ae,|_ _ _ _ a|
 D4 E4 F4 D4 | E8 E8- | E8 z8 | z16 | z4 A4 B4 c4 | d12 c4 | B4 A6 B2 c4- | c4 B8 A4- | A4 ^G4 A8 | %38
w: vul- tu i- rae|tu- ae,|_||a vul- tu|i- rae|tu- * * *|||
 ^G16 | z8 z4 A4 | A4 A4 c4 B4 | c8 B8 | z4 A4 A4 ^G4 | A8 E8- | E4 c4 c4 B4- | B2 A2 A8 =G2 ^F2 | %46
w: ae?|Qui-|a pec- ca- vi|ni- mis|in vi- ta|me- a,|_ in vi- ta|_ _ _ _ _|
 G2 =F2 E2 D2 C2 D2 E4- | E4 D4 E8- | E8 z8 | z8 A8 | A4 A4 _B4 A4 | _B8 A8 | z4 A4 A4 G4 | %53
w: |* me- a,|_|qui-|a pec- ca- vi|ni- mis|in vi- ta|
 A6 G2 F2 E2 F4- | F4 E8 D4 | E16- | E8 c8 | c4 B4 A8 | ^G16 ||"^SECUNDA PARS" z16 | E8 =G4 G4 | %61
w: me- * * * *||a,|_ in|vi- ta me-|a.||Com- mis- sa|
 A8 E4 G4 | F8 E4 A2 G2 | A2 B2 c6 B2 B4- | B2 A2 A8 ^G4 | A8 =G8- | G8 z8 | E8 G4 G4 | A8 E4 G4 | %69
w: me- a pa-|ve- sco, pa- *|||ve- sco,|_|et an- te|te e- ru-|
 F8 E8- | E8 z4 E4 | G4 G4 A8 | G12 G4 | E2 D2 E2 F2 G2 A2 B4- | B2 A2 A8 G4 | c4 B6 A2 A4- | %76
w: be- sco,|_ et|an- te te|e- ru-|be- * * * * * *|* * * sco,|e- ru- * *|
 A2 G2 G4 E4 F4- | F2 E2 E8 D4 | E8 z8 | E8 G4 G4 | A8 E4 G4 | F8 E8- | E8 z8 | z16 | z8 B8 | %85
w: * * * * be-||sco,|et an- te|te e- ru-|be- sco:|_||dum|
 c12 A4 | A4 d8 c4 | B6 AG A2 G2 G4- | G4 ^F4 G8 | z16 | G8 A4 A4 | (B2 c2 d2 B2 c4) A4 | %92
w: ve- ne-|ris ju- di-|ca- * * * * *|* * re||no- li me|con- * * * * dem-|
 G6 F2 E4 A4- | A2 G2 G8 ^F4 | G16 | z8 z4 G4 | A4 A4 (B2 c2 d2 B2 | c12) B4 | A16 | ^G16 | %100
w: na- * * *||re,|no-|li me con- * * *|* dem-|na-|re:|
 z8 z4 A4 | A4 A4 c4 B4 | c8 B8 | z4 A4 A4 ^G4 | A8 E8- | E4 c4 c4 B4- | B2 A2 A8 =G2 ^F2 | %107
w: qui-|a pec- ca- vi|ni- mis|in vi- ta|me- a,|* in vi- ta|_ _ _ _ _|
 G2 =F2 E2 D2 C2 D2 E4- | E4 D4 E8- | E8 z8 | z8 A8 | A4 A4 _B4 A4 | _B8 A8 | z4 A4 A4 G4 | %114
w: |* me- a,|_|qui-|a pec- ca- vi|ni- mis|in vi- ta|
 A6 G2 F2 E2 F4- | F4 E8 D4 | E16- | E8 c8 | c4 B4 A8 | ^G16 |] %120
w: me- * * * *||a,|_ in|vi- ta me-|a.|
V:2
 B,12 B,4 | B,8 E8- | E4 D4 (C4 B,2 A,2 | C4) B,4 A,8 | z4 E8 D4 | C4 B,4 A,4 F4- | F4 E8 D4- | %7
w: Do- mi-|ne, quan-|* do ve- * *|* ne- ris,|quan- do|ve- ne- ris ju-|* di- ca-|
 D4 C4 B,8 | E8 z4 E4- | E4 E4 E8 | z8 z4 E4- | E4 D4 C4 B,4 | A,4 C8 D4 | F4 E4 (D6 CB, | A,16-) | %15
w: * re ter-|ram, Do-|* mi- ne,|quan-|* do ve- ne-|ris ju- di-|ca- re ter- * *||
 A,16 | E8 z4 A4- | A4 G4 (F4 E2 D2 | C4) D6 C2 C4- | C4 B,4 C4 E4- | E4 D4 C4 B,4 | (A,8 B,8) | %22
w: |ram, ju-|* di- ca- * *|* re _ _|_ ter- ram, ju-|* di- ca- re|ter- *|
 (C6 D2 E8-) | E16 | z8 z4 D4- | D4 ^C4 D4 F4 | E8 D4 D4 | E4 F4 (G2 F2 E2 D2 | C4) D4 E4 F4- | %29
w: ram, _ _|_|u-|* bi me a-|scon- dam a|vul- tu i- * * *|* rae tu- *|
 F4 E4 D2 C2 B,2 A,2 | B,4 (C6 B,2 A,4-) | A,4 ^G,4 A,4 E,4 | z16 | z16 | z4 D4 E4 F4 | %35
w: |ae, i- * *|* rae tu- ae,|||a vul- tu|
 G4 E4 F4 E2 D2 | C2 D2 E8 F4- | F4 E8 D4 | E8 z4 E4 | E4 E4 F4 E4 | F8 E8 | z4 A8 G4- | %42
w: i- rae tu- * *|||ae? Qui-|a pec- ca- vi|ni- mis|in vi-|
 G4 F4 E6 D2 | C2 B,2 C6 A,2 B,4 | C6 D2 E6 D2 | C4 B,2 A,2 B,8 | B,4 G,4 A,4 C4- | %47
w: * ta me- *||||a, in vi- ta|
 (C2 B,2 A,8) ^G,4 | A,4 E4 E4 E4 | F4 E4 F8 | E8 F8 | G8 E8 | F8 D4 D4 | D4 ^C4 D6 =C2 | %54
w: _ _ _ me-|a, qui- a pec-|ca- vi ni-|mis in|vi- ta|me- a, in|vi- ta me- *|
 A,2 B,2 C6 B,2 A,4- | A,4 ^G,4 A,8 | E,8 E8- | E4 E4 E8 | E16 || z16 | z16 | z16 | z8 A,8 | %63
w: |* * a,|in vi-|* ta me-|a.||||Com-|
 C4 C4 D8 | A,4 C4 B,8 | (A,2 B,2 C2 D2 E4) C4 | B,4 E4 D8 | C4 (E6 D2 B,4) | C4 D6 C2 C4- | %69
w: mis- sa me-|a pa- ve-|sco, _ _ _ _ com-|mis- sa me-|a pa- * *|ve- * * *|
 C4 B,4 C6 B,A, | B,8 C8 | z4 B,4 D4 D4 | E8 B,4 D4 | C8 B,4 G,4 | (A,6 B,2 C2 D2 E4-) | %75
w: |* sco,|et an- te|te e- ru-|be- sco, e-|ru- * * * *|
 E4 D6 C2 A,4 | B,8 C8- | C8 z4 A,4 | C4 C4 D8 | C4 C4 B,8 | A,4 C6 B,2 B,4- | B,2 A,2 A,8 ^G,4 | %82
w: * be- * *|* sco,|_ et|an- te te|e- ru- be-|sco, e- ru- be-||
 A,16 | z16 | z16 | E8 F8- | F4 D4 D4 G4- | G4 F4 E8 | (D6 C2 B,8) | z4 C4 D4 D4 | %90
w: sco:|||dum ve-|* ne- ris ju-|* di- ca-|re _ _|no- li me|
 (E2 F2 G2 E2 ^F4) F4 | G8 C4 =F4 | E4 (D8 ^C4) | D8 z4 =C4 | D4 D4 (E2 F2 G2 E2 | F4) A4 G8 | %96
w: con- * * * * dem-|na- re, con-|dem- na- *|re, no-|li me con- * * *|* dem- na-|
 C8 z4 G4 | E4 F6 E2 E4- | E4 D2 C2 D8 | E8 z4 E4 | E4 E4 F4 E4 | F8 E8 | z4 A8 G4- | G4 F4 E6 D2 | %104
w: re, con-|dem- na- * *||re: qui-|a pec- ca- vi|ni- mis|in vi-|* ta me- *|
 C2 B,2 C6 A,2 B,4 | C6 D2 E6 D2 | C4 B,2 A,2 B,8 | B,4 G,4 A,4 C4- | (C2 B,2 A,8) ^G,4 | %109
w: |||a, in vi- ta|_ _ _ me-|
 A,4 E4 E4 E4 | F4 E4 F8 | E8 F8 | G8 E8 | F8 D4 D4 | D4 ^C4 D6 =C2 | A,2 B,2 C6 B,2 A,4- | %116
w: a, qui- a pec-|ca- vi ni-|mis in|vi- ta|me- a, in|vi- ta me- *||
 A,4 ^G,4 A,8 | E,8 E8- | E4 E4 E8 | E16 |] %120
w: * * a,|in vi-|* ta me-|a.|
V:3
 z16 | E12 E4 | E8 A8- | A4 G4 c6 B2 | A2 G2 G2 FE F4 F4 | E8 F8 | c8 d8 | A8 e6 d2 | c4 B2 A2 B8 | %9
w: |Do- mi-|ne, quan-|* do ve- *|* * * * * * ne-|ris ju-|di- ca-|re ter- *||
 c12 B4 | A6 B2 c2 B2 B2 A^G | A8 z8 | z8 z4 A4- | A4 A4 A8 | d12 c4 | f6 e2 d2 c2 c2 BA | %16
w: |ram, _ _ _ _ _ _|_|Do-|* mi- ne,|quan- do|ve- * * * * * *|
 B4 B4 A2 B2 c2 A2 | B8 A8 | z16 | z8 z4 c4- | c4 B4 A4 G4 | F8 E8 | z4 A8 ^G4 | A4 c4 B8 | A8 d8 | %25
w: * ne- ris _ _ _|_ _||ju-|* di- ca- re|ter- ram,|u- bi|me a- scon-|dam a|
 f4 e8 d4- | d4 c4 B4 G4 | c4 A4 G4 A4- | A4 G2 F2 E4 D4 | A8 z4 A4- | A4 ^G4 A4 c4 | B8 A4 B4 | %32
w: vul- tu i-|* rae tu- ae,|i- rae tu- *||ae, u-|* bi me a-|scon- dam a|
 c4 c4 d4 c2 B2 | A2 B2 c4 B4 A4- | A4 ^G4 z4 A4 | B4 c4 (d4 c2 B2 | A4) B4 (c8 | B8) A8 | %38
w: vul- tu i- * *|* * * rae tu-|* ae, a|vul- tu i- * *|* rae tu-|* ae?|
 z4 B4 B4 B4 | c4 B4 c8 | d4 A4 A4 ^G4 | A8 E4 B4 | c4 d4 B8 | A8 z8 | z4 A4 A4 ^G4 | A8 E8 | %46
w: Qui- a pec-|ca- vi ni-|mis in vi- ta|me- a, in|vi- ta me-|a,|in vi- ta|me- a,|
 z8 z4 G4 | A4 A4 c4 B4 | c8 c4 B4 | c4 c4 d8 | A8 z8 | z4 d4 d4 ^c4 | (d6 c2 _B8) | A16 | %54
w: qui-|a pec- ca- vi|ni- mis in|vi- ta me-|a,|in vi- ta|me- * *|a,|
 z4 A4 A4 A4 | c4 =B4 c8 | B8 z4 A4 | A4 ^G4 c8 | B16 || E8 =G4 G4 | A8 E4 G4 | %61
w: qui- a pec-|ca- vi ni-|mis in|vi- ta me-|a.|Com- mis- sa|me- a pa-|
 F2 G2 A2 B2 c2 d2 e4- | e2 d2 d4 (c6 B2 | A8 G8) | z4 F4 D4 E4 | F2 G2 A2 B2 c2 d2 e4- | %66
w: ve- * * * * * *|* * * sco, _|_ _|pa- ve- *||
 e2 d2 c8 B4 | c8 B8 | A8 z8 | z8 z4 E4 | G4 G4 A8 | E4 G4 F8 | E8 z8 | z8 z4 B4 | d4 d4 e8 | %75
w: ||sco,|et|an- te te|e- ru- be-|sco,|et|an- te te|
 E4 G4 F8 | E8 z4 A4- | A2 G2 G2 FE F8 | E4 (A8 ^G4) | A4 e4 e4 e4 | c4 (A2 B2 c2 d2 e4) | %81
w: e- ru- be-|sco, e-||ru- be- *|sco, et an- te|te e- * * * *|
 c4 d4 B4 B4 | c12 A4 | A8 d8- | d4 c4 B8 | A8 z4 D4 | d6 B2 B4 e4- | e4 d4 (c6 B2 | A8) G4 G4 | %89
w: ru- be- sco: dum|ve- ne-|ris ju-|* di- ca-|re, dum|ve- ne- ris ju-|* di- ca- *|* re no-|
 A4 A4 (B2 c2 d2 B2 | c4) e4 d8 | G8 z8 | z16 | G8 A4 A4 | (B2 c2 d2 B2 c4) e4 | d8 G8 | %96
w: li me con- * * *|* dem- na-|re,||no- li me|con- * * * * dem-|na- re,|
 z4 c4 d4 d4 | c4 A4 c8- | (c4 B4) A8 | z4 B4 B4 B4 | c4 B4 c8 | d4 A4 A4 ^G4 | A8 E4 B4 | %103
w: no- li me|con- dem- na-|* * re:|qui- a pec-|ca- vi ni-|mis in vi- ta|me- a, in|
 c4 d4 B8 | A8 z8 | z4 A4 A4 ^G4 | A8 E8 | z8 z4 G4 | A4 A4 c4 B4 | c8 c4 B4 | c4 c4 d8 | A8 z8 | %112
w: vi- ta me-|a,|in vi- ta|me- a,|qui-|a pec- ca- vi|ni- mis in|vi- ta me-|a,|
 z4 d4 d4 ^c4 | (d6 c2 _B8) | A16 | z4 A4 A4 A4 | c4 =B4 c8 | B8 z4 A4 | A4 ^G4 c8 | B16 |] %120
w: in vi- ta|me- * *|a,|qui- a pec-|ca- vi ni-|mis in|vi- ta me-|a.|
V:4
 z16 | z16 | z16 | z16 | z16 | z16 | z16 | z8 E,8- | E,4 E,4 E,8 | A,12 G,4 | %10
w: |||||||Do-|* mi- ne,|quan- do|
 C6 B,2 A,2 G,2 G,2 F,E, | F,4 F,4 E,8 | (A,6 G,2 F,2 E,2 D,4-) | D,4 ^C,4 D,8- | D,8 A,,8 | %15
w: ve- * * * * * *|* ne- ris|ju- * * * *|* di- ca-|* re|
 (D,6 E,2 F,8) | E,8 z8 | z8 z4 A,4- | A,4 G,4 F,4 E,4 | D,8 C,8 | z16 | z4 A,8 ^G,4 | A,4 C4 B,8 | %23
w: ter- * *|ram,|ju-|* di- ca- re|ter- ram,||u- bi|me a- scon-|
 A,8 E,8 | F,4 F,4 G,4 G,4 | A,8 D,8 | z16 | z16 | z8 z4 D,4- | D,4 ^C,4 D,4 F,4 | E,8 A,,8 | %31
w: dam a|vul- tu i- rae|tu- ae,|||u-|* bi me a-|scon- dam|
 E,8 F,4 G,4 | (A,2 G,2 F,2 E,2 D,4) E,4 | F,6 E,2 D,4 C,4 | B,,8 A,,8 | z8 z4 E,4 | %36
w: a vul- tu|i- * * * * rae|tu- * * *|* ae,|a|
 F,4 G,4 (A,2 G,2 F,2 E,2 | D,4) E,4 F,8 | E,4 E,4 E,4 E,4 | A,4 ^G,4 A,8 | D,8 z8 | z8 z4 E,4 | %42
w: vul- tu i- * * *|* rae tu-|ae? Qui- a pec-|ca- vi ni-|mis|in|
 E,4 D,4 E,8 | A,,4 A,4 A,4 ^G,4 | A,8 E,8 | z8 z4 E,4 | E,4 E,4 F,4 E,4 | F,8 E,8 | A,8 A,4 ^G,4 | %49
w: vi- ta me-|a, in vi- ta|me- a,|qui-|a pec- ca- vi|ni- mis|in vi- ta|
 A,8 D,4 D4 | D4 ^C4 (D8 | G,8) (A,8 | D,8) z8 | z8 D,8 | D,4 C,4 F,8 | E,8 z4 A,4 | %56
w: me- a, in|vi- ta me-|* a,|_|in|vi- ta me-|a, in|
 A,4 ^G,4 A,6 =G,F, | E,8 A,,8 | E,16 || z16 | z16 | z16 | z16 | z16 | z16 | z16 | E,8 G,4 G,4 | %67
w: vi- ta me- * *||a.||||||||Com- mis- sa|
 A,8 E,4 G,4 | F,6 E,2 C,4 E,4 | D,8 A,,8 | E,8 A,,8 | z16 | z4 E,4 G,4 G,4 | A,8 E,4 G,4 | %74
w: me- a pa-|ve- * * *|sco, pa-|ve- sco,||et an- te|te e- ru-|
 F,8 E,8 | z16 | z8 A,,8 | C,4 C,4 D,8 | A,,4 C,4 B,,8 | A,,2 B,,2 C,2 D,2 E,2 F,2 G,2 E,2 | %80
w: be- sco,||et|an- te te|e- ru- be-||
 F,2 G,2 A,6 G,2 E,4 | F,4 D,4 E,8 | z4 A,,4 F,8- | F,4 D,4 D,4 F,4 | G,4 (A,8 ^G,4) | A,8 z8 | %86
w: |* * sco:|dum ve-|* ne- ris ju-|di- ca- *|re|
 z16 | z8 z4 C,4 | D,4 D,4 (E,2 =F,2 G,2 E,2 | F,4) A,4 G,8 | C,8 z8 | z16 | z4 G,4 A,4 A,4 | %93
w: |no-|li me con- * * *|* dem- na-|re,||no- li me|
 (B,2 C2 D2 B,2 C4) A,4 | G,8 C,4 C,4 | D,4 D,4 (E,2 F,2 G,2 E,2 | F,4) A,4 G,8 | A,12 G,4 | F,16 | %99
w: con- * * * * dem-|na- re, no-|li me con- * * *|* dem- na-|||
 E,4 E,4 E,4 E,4 | A,4 ^G,4 A,8 | D,8 z8 | z8 z4 E,4 | E,4 D,4 E,8 | A,,4 A,4 A,4 ^G,4 | A,8 E,8 | %106
w: re: qui- a pec-|ca- vi ni-|mis|in|vi- ta me-|a, in vi- ta|me- a,|
 z8 z4 E,4 | E,4 E,4 F,4 E,4 | F,8 E,8 | A,8 A,4 ^G,4 | A,8 D,4 D4 | D4 ^C4 (D8 | G,8) (A,8 | %113
w: qui-|a pec- ca- vi|ni- mis|in vi- ta|me- a, in|vi- ta me-|* a,|
 D,8) z8 | z8 D,8 | D,4 C,4 F,8 | E,8 z4 A,4 | A,4 ^G,4 A,6 =G,F, | E,8 A,,8 | E,16 |] %120
w: _|in|vi- ta me-|a, in|vi- ta me- * *||a.|

